X: 1083
T: Dans Tro Plin -- Tons Doubles (A39)
N: page A39
N: heptatonic
M: 4/4
L: 1/8
K: Bm
"Bm"c>d ef ec d2|"A" dB "F#m" cA "Bm" B2 B2:|"Bm" f>g af ag fe|
"A"cd "F#m"ec "Bm" fe d/c/B|"Bm"cd ef e>c d2|"A"dB "F#m"c>A "Bm" B2 B2::
"Bm"Bd cd ed cB|"A"AB "F#m"c/B/A "Bm"B2 B2::Bf fe fg fe|
"A"cd "F#m" e2 "Bm"fd/d/ ed|Bd cd ed fB|"A"AB "F#m"c/B/A "Bm"B2 B2:|
